svg/u1f625.svg

<svg viewBox="0 0 128 128" xmlns="http://www.w3.org/2000/svg">
  <g id="gold">
    <radialGradient id="face_1_" cx="63.6" cy="1992.9" gradientTransform="matrix(1 0 0 1 0 -1930)" gradientUnits="userSpaceOnUse" r="56.9597">
      <stop offset="0.5" stop-color="#FDE030"/>
      <stop offset="0.92" stop-color="#F7C02B"/>
      <stop offset="1" stop-color="#F4A223"/>
    </radialGradient>
    <path id="face" d="M63.6,118.8c-27.9,0-58-17.5-58-55.9S35.7,7,63.6,7c15.5,0,29.8,5.1,40.4,14.4 c11.5,10.2,17.6,24.6,17.6,41.5s-6.1,31.2-17.6,41.4C93.4,113.6,79,118.8,63.6,118.8z" fill="url(#face_1_)"/>
    <path d="M111.49,29.67c5.33,8.6,8.11,18.84,8.11,30.23c0,16.9-6.1,31.2-17.6,41.4 c-10.6,9.3-25,14.5-40.4,14.5c-18.06,0-37-7.35-48.18-22.94c10.76,17.66,31,25.94,50.18,25.94c15.4,0,29.8-5.2,40.4-14.5 c11.5-10.2,17.6-24.5,17.6-41.4C121.6,50.16,118.13,38.84,111.49,29.67z" fill="#EB8F00"/>
  </g>
  <g id="facial_expressions">
    <g id="relieved-face">
      <path id="mouth" d="M64,87.15c10.82,0,17.83,7.92,19.65,11.57c0.7,1.41,0.74,2.58,0.14,3.13 c-0.63,0.41-1.45,0.41-2.08,0c-0.31-0.15-0.62-0.32-0.9-0.52c-10.05-7.2-23.56-7.2-33.61,0c-0.28,0.2-0.58,0.37-0.9,0.52 c-0.63,0.42-1.45,0.42-2.08,0c-0.6-0.55-0.56-1.72,0.14-3.13C46.17,95.08,53.18,87.15,64,87.15z" fill="#422B0D"/>
      <g id="eyes">
        <g id="eyebrows">
          <path d="M27.39,39.77c-2.2,0.39-2.31,3.59,0.09,3.7c5.3,0.08,10.42-1.88,14.32-5.47 c1.48-1.28,2.74-2.79,3.71-4.49c0.58-0.83,0.38-1.97-0.44-2.56s-1.97-0.38-2.56,0.44l-0.1,0.1 C38.48,35.88,33.19,38.79,27.39,39.77z" fill="#422B0D"/>
          <path d="M86.12,31.52l-0.1-0.1c-0.58-0.83-1.73-1.03-2.56-0.45c-0.83,0.58-1.03,1.73-0.44,2.56 c0.98,1.69,2.24,3.2,3.73,4.47c3.9,3.59,9.02,5.54,14.32,5.45c2.4-0.11,2.29-3.31,0.08-3.7C95.35,38.78,90.06,35.88,86.12,31.52 z" fill="#422B0D"/>
        </g>
      </g>
    </g>
    <radialGradient id="SVGID_1_" cx="20.59" cy="-404.6951" gradientTransform="matrix(1 0 0 -1.54 0 -560.29)" gradientUnits="userSpaceOnUse" r="33.4">
      <stop offset="0.46" stop-color="#29B6F6"/>
      <stop offset="1" stop-color="#1E88E5"/>
    </radialGradient>
    <path d="M19.52,107c-8.46,0-15-8.21-15-15.24c0-4.94,2.21-10.67,5.34-18.61 c0.39-1.17,0.91-2.35,1.43-3.65c1.49-3.72,2.8-7.75,4.8-11.24c0.95-1.7,3.1-2.3,4.79-1.35c0.56,0.32,1.03,0.78,1.35,1.35 c1.86,3.43,3.14,7.14,5.07,11.47c5.47,12.24,7,17.19,7,22.13C34.49,98.83,27.85,107,19.52,107z" fill="url(#SVGID_1_)"/>
    <path d="M28.67,97.65c-1.91,3-6.25,2.4-6.25-2.51c0-3.14,0.64-19.26,3.34-17 C30.14,81.81,31.39,93.47,28.67,97.65z" fill="#81D4FA"/>
    <path d="M44.67,54.94L44.67,54.94c-4.19,0-8,3.54-8,9.42s3.81,9.41,8,9.41l0,0c4.19,0,8-3.54,8-9.41 S48.86,54.94,44.67,54.94z" fill="#422B0D"/>
    <g id="peepers">
      <path d="M44.28,58.87L44.28,58.87c-1.42-0.68-3.13-0.08-3.82,1.34c-0.53,1.11-0.29,2.44,0.6,3.3l0,0 c1.42,0.68,3.13,0.08,3.82-1.34C45.41,61.06,45.17,59.73,44.28,58.87z" fill="#896024"/>
    </g>
    <path d="M83,54.94L83,54.94c-4.19,0-8,3.54-8,9.42s3.81,9.41,8,9.41l0,0c4.19,0,8-3.54,8-9.41 S87.21,54.94,83,54.94z" fill="#422B0D"/>
    <g id="peepers-2">
      <path d="M82.63,58.87L82.63,58.87c-1.42-0.68-3.13-0.08-3.82,1.34c-0.53,1.11-0.29,2.44,0.6,3.3l0,0 c1.42,0.68,3.13,0.08,3.82-1.34C83.76,61.06,83.52,59.73,82.63,58.87z" fill="#896024"/>
    </g>
  </g>
</svg>

<svg viewBox="0 0 128 128" xmlns="http://www.w3.org/2000/svg">
  <defs>
    <radialGradient id="face_1_" cx="63.6" cy="62.9" gradientUnits="userSpaceOnUse" r="56.9597">
      <stop offset="0.5" stop-color="#FDE030"/>
      <stop offset="0.92" stop-color="#F7C02B"/>
      <stop offset="1" stop-color="#F4A223"/>
    </radialGradient>
    <radialGradient id="SVGID_1_" cx="20.59" cy="-40.870425" gradientTransform="matrix(1 0 0 -1.54 0 0)" gradientUnits="userSpaceOnUse" r="33.4">
      <stop offset="0.46" stop-color="#29B6F6"/>
      <stop offset="1" stop-color="#1E88E5"/>
    </radialGradient>
  </defs>
  <path id="face" d="M63.6,118.8 C35.7,118.8 5.6,101.3 5.6,62.9 C5.6,24.5 35.7,7 63.6,7 C79.1,7 93.4,12.1 104,21.4 C115.5,31.6 121.6,46 121.6,62.9 C121.6,79.8 115.5,94.1 104,104.3 C93.4,113.6 79,118.8 63.6,118.8 Z" fill="url(#face_1_)"/>
  <path d="M111.49,29.67 C116.82,38.27 119.6,48.51 119.6,59.9 C119.6,76.8 113.5,91.1 102,101.3 C91.4,110.6 77,115.8 61.6,115.8 C43.54,115.8 24.6,108.45 13.42,92.86 C24.18,110.52 44.42,118.8 63.6,118.8 C79,118.8 93.4,113.6 104,104.3 C115.5,94.1 121.6,79.8 121.6,62.9 C121.6,50.16 118.13,38.84 111.49,29.67 Z" fill="#EB8F00"/>
  <path id="mouth" d="M64,87.15 C74.82,87.15 81.83,95.07 83.65,98.72 C84.35,100.13 84.39,101.3 83.79,101.85 C83.16,102.26 82.34,102.26 81.71,101.85 C81.4,101.7 81.09,101.53 80.81,101.33 C70.76,94.13 57.25,94.13 47.2,101.33 C46.92,101.53 46.62,101.7 46.3,101.85 C45.67,102.27 44.85,102.27 44.22,101.85 C43.62,101.3 43.66,100.13 44.36,98.72 C46.17,95.08 53.18,87.15 64,87.15 Z" fill="#422B0D"/>
  <path d="M27.39,39.77 C25.19,40.16 25.08,43.36 27.48,43.47 C32.78,43.55 37.9,41.59 41.8,38 C43.28,36.72 44.54,35.21 45.51,33.51 C46.09,32.68 45.89,31.54 45.07,30.95 C44.25,30.36 43.1,30.57 42.51,31.39 L42.41,31.49 C38.48,35.88 33.19,38.79 27.39,39.77 Z" fill="#422B0D"/>
  <path d="M86.12,31.52 L86.02,31.42 C85.44,30.59 84.29,30.39 83.46,30.97 C82.63,31.55 82.43,32.7 83.02,33.53 C84,35.22 85.26,36.73 86.75,38 C90.65,41.59 95.77,43.54 101.07,43.45 C103.47,43.34 103.36,40.14 101.15,39.75 C95.35,38.78 90.06,35.88 86.12,31.52 Z" fill="#422B0D"/>
  <path d="M19.52,107 C11.06,107 4.52,98.79 4.52,91.76 C4.52,86.82 6.73,81.09 9.86,73.15 C10.25,71.98 10.77,70.8 11.29,69.5 C12.78,65.78 14.09,61.75 16.09,58.26 C17.04,56.56 19.19,55.96 20.88,56.91 C21.44,57.23 21.91,57.69 22.23,58.26 C24.09,61.69 25.37,65.4 27.3,69.73 C32.77,81.97 34.3,86.92 34.3,91.86 C34.49,98.83 27.85,107 19.52,107 Z" fill="url(#SVGID_1_)"/>
  <path d="M28.67,97.65 C26.76,100.65 22.42,100.05 22.42,95.14 C22.42,92 23.06,75.88 25.76,78.14 C30.14,81.81 31.39,93.47 28.67,97.65 Z" fill="#81D4FA"/>
  <path d="M44.67,54.94 L44.67,54.94 C40.48,54.94 36.67,58.48 36.67,64.36 C36.67,70.24 40.48,73.77 44.67,73.77 L44.67,73.77 C48.86,73.77 52.67,70.23 52.67,64.36 C52.67,58.49 48.86,54.94 44.67,54.94 Z" fill="#422B0D"/>
  <path d="M44.28,58.87 L44.28,58.87 C42.86,58.19 41.15,58.79 40.46,60.21 C39.93,61.32 40.17,62.65 41.06,63.51 L41.06,63.51 C42.48,64.19 44.19,63.59 44.88,62.17 C45.41,61.06 45.17,59.73 44.28,58.87 Z" fill="#896024"/>
  <path d="M83,54.94 L83,54.94 C78.81,54.94 75,58.48 75,64.36 C75,70.24 78.81,73.77 83,73.77 L83,73.77 C87.19,73.77 91,70.23 91,64.36 C91,58.49 87.21,54.94 83,54.94 Z" fill="#422B0D"/>
  <path d="M82.63,58.87 L82.63,58.87 C81.21,58.19 79.5,58.79 78.81,60.21 C78.28,61.32 78.52,62.65 79.41,63.51 L79.41,63.51 C80.83,64.19 82.54,63.59 83.23,62.17 C83.76,61.06 83.52,59.73 82.63,58.87 Z" fill="#896024"/>
</svg>
